X:1
T:L'ultima volta
T:Horatio Vecchi
T:Source : Canzonette a tre vocidi H.Vecchi et di G.Capi Lupi da Modona---Venetia---Ang.Gardano---1597. Editor : André Vierendeels (11/02/17).
T:Notes : Original clefs : C1, C1, F4 Accompanying for lute is not added in this edition
T:L'ultima volta
T:©
T:©
C:Horatio Vecchi
Z:©
%%score [ 1 2 3 ]
L:1/8
Q:1/4=97
M:4/4
K:C
V:1 treble nm="Soprano 1" snm="S 1"
V:2 treble nm="Soprano 2" snm="S 2"
V:3 bass nm="Bass" snm="B"
V:1
"^1)" z2 A3 A A2 | d2 B2 ^c4 | ^c2 A2 =c4- | c2 c2 c2 c2 | c6 c2 | d2 f2 e3 d | cdec d4 | %7
w: L'ul- ti- ma|vol- ta ch'i-|o ti vid-|* di'o- gn'al- tr'a-|mor po-|s'in o- bli- *||
w: Vid di che|quel- le per-|le e- ran|_ Li- gu- str'in|frà ro-|se'à ve- der- *||
[M:2/4] e4 ::[M:4/4] z2 e2 d2 c2 | B3 B B2 c2 | c2 d2 G4 | G4 z ccB | A2 A2 z ccB | A2 A2 z ddc | %14
w: o,|all' hor m'ac-|cor- si che ne|gl'oc- chi tuo-|i a- mor va-|gheg- ga à par- go-|let- ta, à par- go-|
w: le.|All' hor vid-|d'io che den- tr'à|la tua boc-|ca, a- mor gio-|i- sce, e vi si|ve- de a vi si|
 B2 A2 ^G2 A2- | A2 ^G2 !fermata!A4 :| %16
w: let- ta suo- *|* * i.|
w: ve- de e toc-|* * ca.|
V:2
"^2)""^1)" z2 F3 E F2 | A2 ^G2 A4 | A2 c2 A4- | A2 A2 A2 A2 | A6 G2 | A2 B2 c2 BA | G2 c4 B2 | %7
w: L'ul- ti- ma|vol- ta ch'i-|o ti vid-|* di'o- gn'al- tr'a-|mor po|s'in o- bli- * *||
w: Can- di- do|scor- s'il pet-|to che vin-|* ce'al pa- ra-|gon l'a-|vo- ri- o schiet- *||
[M:2/4] c4 ::[M:4/4] z2 c2 B2 A2 | ^G3 G G2 G2 | A2 F2 E4 | EEED C2 C2 | z ccB A2 A2 | %13
w: o,|all' hor m'ac-|cor- si che ne|gl'oc- chi tuo-|i, a- mor va- gheg- gia|i par- go- let- ti,|
w: to.|All'hor dis- s'io|di qui n'è'u- sci-|to' il dar-|do, che'l cor mi strug- ge|ond' io n'a- vam- p'e|
 z AAG F2 D2 | z ddc B2 c2 | B4 !fermata!A4 :| %16
w: i par- go- let- ti|i par- go- let- ti|suo- i.|
w: ond' io n'a- vam- p'e|ond' io n'a- vam- p'ed|ar- do.|
V:3
"^3)""^1)""^4)" z2 D,3 ^C, D,2 | D,2 E,2 A,,4 | A,,2 F,2 F,4- | F,2 F,2 F,2 F,2 | F,4 E,4 | %5
w: L'ul- ti- ma|vol- ta ch'i-|o ti vid-|* di'o- gn'al- tr'a-|mor po-|
w: So- a- vis-|si- mi'ac- cen-|ti u- do|_ del tuo va-|lor cer-|
 D,4 C,4- | C,2 B,,A,, G,,4 |[M:2/4] C,4 ::[M:4/4] z2 C2 G,2 A,2 | E,3 E, E,2 E,2 | F,2 D,2 C,4 | %11
w: s'in o-|* bli- * *|o,|all' hor m'ac-|cor- si che ne|gl'oc- chi tuo-|
w: ti'ar- go-|* men- * *|ti.|All' hor gri-|dai, o'A- mor che|vuoi tu far-|
 C,CCB, A,2 A,2 | z A,A,G, F,2 F,2 | z F,F,E, D,4- | D,2 D,2 E,4- | E,4 !fermata!A,,4 :| %16
w: i, a- mor va- gheg- gia|i par- go- let- ti;|i par- go- let|_ ti suo-|* i.|
w: mi? Ec- co t'il co- re,|io piu non pos- so,|io piu non pos-|* so'ai- tar-|* mi.|

